icons/lines/car.svg

<svg xmlns="http://www.w3.org/2000/svg" width="24" height="24" viewBox="0 0 24 24" fill="none" stroke="currentColor" stroke-width="2" stroke-linecap="round" stroke-linejoin="round" >
  <path d="M15.51 2.82996H8.49C6 2.82996 5.45 4.06996 5.13 5.58996L4 11H20L18.87 5.58996C18.55 4.06996 18 2.82996 15.51 2.82996Z"/>
  <path d="M21.9902 19.82C22.1002 20.99 21.1602 22 19.9602 22H18.0802C17.0002 22 16.8502 21.54 16.6602 20.97L16.4602 20.37C16.1802 19.55 16.0002 19 14.5602 19H9.44022C8.00022 19 7.79022 19.62 7.54022 20.37L7.34022 20.97C7.15022 21.54 7.00022 22 5.92022 22H4.04022C2.84022 22 1.90022 20.99 2.01022 19.82L2.57022 13.73C2.71022 12.23 3.00022 11 5.62022 11H18.3802C21.0002 11 21.2902 12.23 21.4302 13.73L21.9902 19.82Z"/>
  <path d="M4 8H3"/>
  <path d="M21 8H20"/>
  <path d="M12 3V5"/>
  <path d="M10.5 5H13.5"/>
  <path d="M6 15H9"/>
  <path d="M15 15H18"/>
  </svg>

<svg xmlns="http://www.w3.org/2000/svg" width="24" height="24" viewBox="0 0 24 24" fill="none" stroke="currentColor" stroke-width="2" stroke-linecap="round" stroke-linejoin="round">
  <path d="M10.5 5h3" />
  <path d="M12 3v2" />
  <path d="M15 15h3" />
  <path d="M18.38 11c2.62 0 2.91 1.23 3.05 2.73l.56 6.09c.11 1.17-.83 2.18-2.03 2.18h-1.88c-1.08 0-1.23-.46-1.42-1.03l-.2-.6c-.28-.82-.46-1.37-1.9-1.37H9.44c-1.44 0-1.65.62-1.9 1.37l-.2.6C7.15 21.54 7 22 5.92 22H4.04c-1.2 0-2.14-1.01-2.03-2.18l.56-6.09C2.71 12.23 3 11 5.62 11" />
  <path d="M21 8h-1" />
  <path d="M4 8H3" />
  <path d="M6 15h3" />
  <path d="M8.49 2.83C6 2.83 5.45 4.07 5.13 5.59L4 11h16l-1.13-5.41c-.32-1.52-.87-2.76-3.36-2.76z" />
</svg>
